build/img/instagram-icon__mobile.svg

<svg width="20" height="21" viewBox="0 0 20 21" fill="none" xmlns="http://www.w3.org/2000/svg">
<path d="M10 0C12.717 0 13.056 0.0104999 14.122 0.0629999C15.187 0.1155 15.912 0.29085 16.55 0.55125C17.21 0.81795 17.766 1.17915 18.322 1.7619C18.8305 2.28679 19.224 2.92172 19.475 3.6225C19.722 4.29135 19.89 5.05365 19.94 6.1719C19.987 7.2912 20 7.64715 20 10.5C20 13.3528 19.99 13.7088 19.94 14.8281C19.89 15.9463 19.722 16.7076 19.475 17.3775C19.2247 18.0787 18.8311 18.7137 18.322 19.2381C17.822 19.7718 17.2173 20.1849 16.55 20.4487C15.913 20.7081 15.187 20.8845 14.122 20.937C13.056 20.9863 12.717 21 10 21C7.283 21 6.944 20.9895 5.878 20.937C4.813 20.8845 4.088 20.7081 3.45 20.4487C2.78233 20.1857 2.17753 19.7725 1.678 19.2381C1.16941 18.7133 0.775931 18.0783 0.525 17.3775C0.277 16.7086 0.11 15.9463 0.0599999 14.8281C0.0129999 13.7088 0 13.3528 0 10.5C0 7.64715 0.00999994 7.2912 0.0599999 6.1719C0.11 5.0526 0.277 4.2924 0.525 3.6225C0.775236 2.92129 1.1688 2.28619 1.678 1.7619C2.17767 1.22769 2.78243 0.814516 3.45 0.55125C4.088 0.29085 4.812 0.1155 5.878 0.0629999C6.944 0.0136499 7.283 0 10 0ZM10 5.25C8.67392 5.25 7.40215 5.80312 6.46447 6.78769C5.52678 7.77225 5 9.10761 5 10.5C5 11.8924 5.52678 13.2277 6.46447 14.2123C7.40215 15.1969 8.67392 15.75 10 15.75C11.3261 15.75 12.5979 15.1969 13.5355 14.2123C14.4732 13.2277 15 11.8924 15 10.5C15 9.10761 14.4732 7.77225 13.5355 6.78769C12.5979 5.80312 11.3261 5.25 10 5.25ZM16.5 4.9875C16.5 4.6394 16.3683 4.30556 16.1339 4.05942C15.8995 3.81328 15.5815 3.675 15.25 3.675C14.9185 3.675 14.6005 3.81328 14.3661 4.05942C14.1317 4.30556 14 4.6394 14 4.9875C14 5.3356 14.1317 5.66944 14.3661 5.91558C14.6005 6.16172 14.9185 6.3 15.25 6.3C15.5815 6.3 15.8995 6.16172 16.1339 5.91558C16.3683 5.66944 16.5 5.3356 16.5 4.9875ZM10 7.35C10.7956 7.35 11.5587 7.68187 12.1213 8.27261C12.6839 8.86335 13 9.66457 13 10.5C13 11.3354 12.6839 12.1366 12.1213 12.7274C11.5587 13.3181 10.7956 13.65 10 13.65C9.20435 13.65 8.44129 13.3181 7.87868 12.7274C7.31607 12.1366 7 11.3354 7 10.5C7 9.66457 7.31607 8.86335 7.87868 8.27261C8.44129 7.68187 9.20435 7.35 10 7.35Z" fill="white"/>
</svg>

<svg width="20" height="21" fill="none" xmlns="http://www.w3.org/2000/svg"><path d="M10 0c2.717 0 3.056.01 4.122.063 1.065.053 1.79.228 2.428.488a4.87 4.87 0 011.772 1.21c.509.526.902 1.16 1.153 1.862.247.668.415 1.43.465 2.549.047 1.12.06 1.475.06 4.328s-.01 3.209-.06 4.328c-.05 1.118-.218 1.88-.465 2.55a5.16 5.16 0 01-1.153 1.86c-.5.534-1.105.947-1.772 1.21-.637.26-1.363.436-2.428.489-1.066.05-1.405.063-4.122.063-2.717 0-3.056-.01-4.122-.063-1.065-.053-1.79-.229-2.428-.488a4.873 4.873 0 01-1.772-1.21 5.182 5.182 0 01-1.153-1.861c-.248-.67-.415-1.432-.465-2.55C.013 13.708 0 13.353 0 10.5s.01-3.209.06-4.328c.05-1.12.217-1.88.465-2.55a5.156 5.156 0 011.153-1.86A4.88 4.88 0 013.45.552C4.088.29 4.812.114 5.878.062 6.944.013 7.283 0 10 0zm0 5.25a4.882 4.882 0 00-3.536 1.538A5.386 5.386 0 005 10.5c0 1.392.527 2.728 1.464 3.712A4.882 4.882 0 0010 15.75a4.882 4.882 0 003.536-1.538A5.386 5.386 0 0015 10.5a5.386 5.386 0 00-1.464-3.712A4.882 4.882 0 0010 5.25zm6.5-.263a1.35 1.35 0 00-.366-.928 1.22 1.22 0 00-.884-.384c-.332 0-.65.138-.884.384a1.35 1.35 0 00-.366.928c0 .349.132.682.366.929.235.246.553.384.884.384.332 0 .65-.138.884-.384a1.35 1.35 0 00.366-.929zM10 7.35a2.93 2.93 0 012.121.923c.563.59.879 1.392.879 2.227s-.316 1.637-.879 2.227A2.93 2.93 0 0110 13.65a2.93 2.93 0 01-2.121-.923A3.232 3.232 0 017 10.5c0-.835.316-1.637.879-2.227A2.93 2.93 0 0110 7.35z" fill="#fff"/></svg>
